X: 16888
T: Haughs Of Cromdale, The
R: strathspey
M: 4/4
K: Edorian
|:c>e|B<EE>F B>AF>A|B<EE<F D>EF<A|B<EE>F B>AF>A|B>dA>F E2:|
|:F>E|D<dd>e d>cB<A|F<AA>B A>FE<D|1 E>ee>f g>ef<d|B<dA>F E2:|
[2 B>ee>f g/e/f/d/ e>d|B>d B/A/G/F/ E2||

